src/icons/history.svg

<svg width="16" height="16" viewBox="0 0 16 16" fill="none" xmlns="http://www.w3.org/2000/svg">
<path fill-rule="evenodd" clip-rule="evenodd" d="M13.5072 12.3239C14.4749 11.0906 15.0006 9.56812 15 8.00045C15.0001 6.46996 14.4986 4.98161 13.5723 3.76328C12.6459 2.54495 11.3459 1.66378 9.87105 1.25469C8.39624 0.845604 6.828 0.931139 5.40643 1.4982C3.98487 2.06526 2.78832 3.0826 2 4.39445V2.00045H1V5.50045L1.5 6.00045H5V5.00045H2.811C3.47895 3.84546 4.51237 2.94567 5.74827 2.44298C6.98418 1.94028 8.35226 1.86329 9.63676 2.22413C10.9213 2.58498 12.0491 3.36313 12.8425 4.43587C13.6358 5.50862 14.0495 6.81493 14.0182 8.14879C13.987 9.48265 13.5127 10.7682 12.6701 11.8026C11.8274 12.8371 10.6644 13.5616 9.36443 13.862C8.06445 14.1624 6.70147 14.0215 5.49043 13.4615C4.27939 12.9016 3.2892 11.9544 2.676 10.7695L1.789 11.2315C2.51204 12.6224 3.68106 13.7304 5.10876 14.3779C6.53646 15.0254 8.14019 15.1749 9.66297 14.8025C11.1858 14.4301 12.5395 13.5573 13.5072 12.3239ZM10.146 11.3545L10.854 10.6465L8 7.79349V4.00049H7V8.00049L7.146 8.35449L10.146 11.3545Z" fill="white"/>
</svg>

<svg width="16" height="16" xmlns="http://www.w3.org/2000/svg"><path fill-rule="evenodd" clip-rule="evenodd" d="M13.507 12.324a7 7 0 0 0 .065-8.56A7 7 0 0 0 2 4.393V2H1v3.5l.5.5H5V5H2.811a6.008 6.008 0 1 1-.135 5.77l-.887.462a7 7 0 0 0 11.718 1.092zm-3.361-.97l.708-.707L8 7.792V4H7v4l.146.354 3 3z"/></svg>
